X:1
T:I Take It in Prayer
T:I Take It in Prayer
T:Okla Dotson Burdette
T:Okla Dotson Burdette, 1915
T:Public Domain Courtesy of the Cyber Hymnal™
T:Public Domain Courtesy of the Cyber Hymnal™
C:Okla Dotson Burdette
Z:Public Domain
Z:Courtesy of the Cyber Hymnal™
%%score ( 1 2 ) ( 3 4 )
L:1/8
Q:1/4=140
M:3/4
K:Db
V:1 treble 
V:2 treble 
V:3 bass 
V:4 bass 
V:1
 [FA]2 | [Fd]2 [Ac]2 [GB]2 | [FA]2 [=E=G]2 [FA]2 | [GB]2 [FA]2 D2 | [DF]4 [DF]2 | %5
w: 1.~When|dark, gloom- y|sha- dows creep|o- ver my|soul, I|
w: 2.~When|floods of temp-|ta- tion my|soul would o’er-|flow, I|
w: 3.~When|en- e- mies|in- jure, or|friends me for-|sake, I|
w: 4.~I|long ev- ery|day to draw|near- er His|throne; I|
 [CE]2 [=B,=D]2 [CE]2 | [EG]2 [=DF]2 [EG]2 | [GB]6 | [FA]4 [FA]2 | [Fd]2 [Ac]2 [GB]2 | %10
w: take it in|prayer to my|Sav-|ior; When|’round me in|
w: take it in|prayer to my|Sav-|ior; When|sore trib- u-|
w: take it in|prayer to my|Sav-|ior; When|hopes all are|
w: take it in|prayer to my|Sav-|ior; My|peace and con-|
 [FA]2 [=E=G]2 [FA]2 | [GB]2 [FA]2 D2 | [DF]4 [=B,F]2 | [CE]2 [=B,=D]2 [CE]2 | [Fd]2 [Ec]2 [DB]2 | %15
w: fu- ry the|wild bil- lows|roll, I|take it in|prayer to my|
w: la- tions my|faith would o’er-|throw, I|take it in|prayer to my|
w: blast- ed, when|cher- ished plans|break, I|take it in|prayer to my|
w: tent in His|pre- sence a-|lone, I|take it in|prayer to my|
 [DB]6 | [CA]6 ||"^Refrain" [DA]2 [Fd]2 [Fd]2 | [Gc]4 [GB]2 | [FA]4 [EG]2 | [DF]4 [DF]2 | %21
w: Sav-|ior.|||||
w: Sav-|ior.|Oh, what a|priv- i-|lege di-|vine To|
w: Sav-|ior.|||||
w: Sav-|ior.|||||
 [CE]2 [=B,=D]2 [CE]2 | [FA]4 [EG]2 | [DF]6- | [DF]4 [FA]2 | [Fd]2 [Ec]2 [Ge]2 | [Fd]4 [GB]2 | %27
w: ||||||
w: kneel at the|Sav- ior’s|feet,|* To|car- ry each|sor- row,|
w: ||||||
w: ||||||
 [FA]4 [GB]2 | [FA]2 D2 [DE]2 | [DF]2 [DA]2 [DG]2 | [DF]4 [CE]2 | D6- | D4 |] %33
w: ||||||
w: hope and|fear To the|life- giv- ing|mer- cy|seat.||
w: ||||||
w: ||||||
V:2
 x2 | x6 | x6 | x4 D2 | x6 | x6 | x6 | x6 | x6 | x6 | x6 | x4 D2 | x6 | x6 | x6 | x6 | x6 || x6 | %18
 x6 | x6 | x6 | x6 | x6 | x6 | x6 | x6 | x6 | x6 | x2 D2 x2 | x6 | x6 | D6- | D4 |] %33
V:3
 [D,A,]2 | [D,A,]2 [D,B,]2 [D,C]2 | [D,D]2 [D,D]2 [D,D]2 | [D,D]2 [D,D]2 [D,F,]2 | %4
 [D,A,]4 [D,A,]2 | [A,,A,]2 [A,,A,]2 [A,,A,]2 | [A,,A,]2 [A,,A,]2 [A,,C]2 | [D,D]6 | %8
 [D,D]4 [D,D]2 | [D,A,]2 [D,B,]2 [D,C]2 | [D,D]2 [D,D]2 [D,D]2 | [D,D]2 [D,D]2 [D,F,]2 | %12
 [D,A,]4 [=D,A,]2 | [E,A,]2 [E,A,]2 [E,A,]2 | [E,=G,]2 [E,G,]2 [E,G,]2 | [E,=G,]6 | [A,,A,]6 || %17
 [D,F,]2 [D,A,]2 [D,A,]2 | [E,A,]4 [E,A,]2 | A,4 [C,A,]2 | [D,A,]4 [D,A,]2 | %21
 [A,,A,]2 [A,,A,]2 [A,,A,]2 | [A,,C]4 [A,,A,]2 | [D,A,]6- | [D,A,]4 [D,A,]2 | %25
 [D,A,]2 [D,A,]2 [D,A,]2 | [D,A,]4 [D,D]2 | [D,D]4 [D,D]2 | [D,D]2 [F,A,]2 [G,B,]2 | %29
 A,2 [F,A,]2 [E,B,]2 | A,4 [A,,G,]2 | [D,F,]6- | [D,F,]4 |] %33
V:4
 x2 | x6 | x6 | x6 | x6 | x6 | x6 | x6 | x6 | x6 | x6 | x6 | x6 | x6 | x6 | x6 | x6 || x6 | x6 | %19
 A,,2 B,,2 x2 | x6 | x6 | x6 | x6 | x6 | x6 | x6 | x6 | x6 | A,2 x4 | A,4 x2 | x6 | x4 |] %33

